dist/img/icons/security/verified.svg

<svg width="26" height="26" viewBox="0 0 26 26" fill="none" xmlns="http://www.w3.org/2000/svg">
<g clip-path="url(#clip0)">
<path d="M22.1924 3.80807C19.737 1.35274 16.4724 0.000488281 13 0.000488281C9.52753 0.000488281 6.2629 1.35274 3.80758 3.80807C1.3522 6.26344 0 9.52807 0 13.0005C0 16.4729 1.3522 19.7375 3.80758 22.1929C6.26295 24.6482 9.52753 26.0005 13 26.0005C16.4724 26.0005 19.737 24.6482 22.1924 22.1929C24.6477 19.7375 26 16.4729 26 13.0005C26 9.52807 24.6477 6.26349 22.1924 3.80807ZM13 24.4771C6.67179 24.4771 1.52344 19.3287 1.52344 13.0005C1.52344 6.67228 6.67179 1.52393 13 1.52393C19.3282 1.52393 24.4766 6.67228 24.4766 13.0005C24.4766 19.3287 19.3282 24.4771 13 24.4771Z" fill="white"/>
<path d="M19.211 8.82923C18.9136 8.53185 18.4313 8.53185 18.1339 8.82928L11.4074 15.5557L7.86661 12.0149C7.56919 11.7175 7.08687 11.7175 6.78939 12.0149C6.49192 12.3123 6.49192 12.7946 6.78939 13.0921L10.8688 17.1715C11.0175 17.3202 11.2125 17.3946 11.4074 17.3946C11.6023 17.3946 11.7973 17.3202 11.946 17.1715L19.211 9.90645C19.5085 9.60902 19.5085 9.1267 19.211 8.82923Z" fill="white"/>
</g>
<defs>
<clipPath id="clip0">
<rect width="26" height="26" fill="white" transform="translate(0 0.000488281)"/>
</clipPath>
</defs>
</svg>

<svg width="26" height="26" fill="none" xmlns="http://www.w3.org/2000/svg"><g clip-path="url(#clip0)" fill="#fff"><path d="M22.192 3.808A12.915 12.915 0 0013 0a12.915 12.915 0 00-9.192 3.808A12.915 12.915 0 000 13.001c0 3.472 1.352 6.737 3.808 9.192A12.915 12.915 0 0013 26c3.472 0 6.737-1.352 9.192-3.807A12.915 12.915 0 0026 13c0-3.472-1.352-6.737-3.808-9.192zM13 24.478c-6.328 0-11.477-5.15-11.477-11.478C1.523 6.673 6.672 1.524 13 1.524S24.477 6.672 24.477 13c0 6.328-5.149 11.476-11.477 11.476z"/><path d="M19.211 8.83a.762.762 0 00-1.077 0l-6.727 6.726-3.54-3.541a.762.762 0 00-1.078 1.077l4.08 4.08a.76.76 0 001.077 0l7.265-7.266a.762.762 0 000-1.077z"/></g><defs><clipPath id="clip0"><path fill="#fff" d="M0 0h26v26H0z"/></clipPath></defs></svg>
